public/logos/D2.svg

<?xml version="1.0" encoding="UTF-8"?>
<svg xmlns="http://www.w3.org/2000/svg" xmlns:xlink="http://www.w3.org/1999/xlink" width="176pt" height="41.4pt" viewBox="0 0 176 41.4" version="1.1">
<defs>
<clipPath id="clip1">
  <path d="M 26 27 L 42 27 L 42 41.398438 L 26 41.398438 Z M 26 27 "/>
</clipPath>
<clipPath id="clip2">
  <path d="M 55 26 L 65 26 L 65 41.398438 L 55 41.398438 Z M 55 26 "/>
</clipPath>
<clipPath id="clip3">
  <path d="M 63 26 L 76 26 L 76 41.398438 L 63 41.398438 Z M 63 26 "/>
</clipPath>
<clipPath id="clip4">
  <path d="M 75 22 L 87 22 L 87 41.398438 L 75 41.398438 Z M 75 22 "/>
</clipPath>
<clipPath id="clip5">
  <path d="M 86 26 L 100 26 L 100 41.398438 L 86 41.398438 Z M 86 26 "/>
</clipPath>
<clipPath id="clip6">
  <path d="M 100 20 L 105 20 L 105 41.398438 L 100 41.398438 Z M 100 20 "/>
</clipPath>
<clipPath id="clip7">
  <path d="M 0 21 L 14 21 L 14 41.398438 L 0 41.398438 Z M 0 21 "/>
</clipPath>
<clipPath id="clip8">
  <path d="M 40 26 L 54 26 L 54 41.398438 L 40 41.398438 Z M 40 26 "/>
</clipPath>
<clipPath id="clip9">
  <path d="M 14 26 L 28 26 L 28 41.398438 L 14 41.398438 Z M 14 26 "/>
</clipPath>
<clipPath id="clip10">
  <path d="M 137 27 L 151 27 L 151 41.398438 L 137 41.398438 Z M 137 27 "/>
</clipPath>
<clipPath id="clip11">
  <path d="M 150 30 L 161 30 L 161 41.398438 L 150 41.398438 Z M 150 30 "/>
</clipPath>
<clipPath id="clip12">
  <path d="M 161 26 L 164 26 L 164 41.398438 L 161 41.398438 Z M 161 26 "/>
</clipPath>
<clipPath id="clip13">
  <path d="M 165 30 L 176 30 L 176 41.398438 L 165 41.398438 Z M 165 30 "/>
</clipPath>
</defs>
<g id="surface1">
<g clip-path="url(#clip1)" clip-rule="nonzero">
<path style=" stroke:none;fill-rule:nonzero;fill:rgb(13.851929%,19.415283%,40.132141%);fill-opacity:1;" d="M 37.679688 27.070312 L 34.425781 36.058594 L 34.359375 36.058594 L 31.039062 27.070312 L 26.933594 27.070312 L 32.828125 41.171875 L 35.695312 41.171875 L 41.589844 27.070312 L 37.679688 27.070312 "/>
</g>
<g clip-path="url(#clip2)" clip-rule="nonzero">
<path style=" stroke:none;fill-rule:nonzero;fill:rgb(13.851929%,19.415283%,40.132141%);fill-opacity:1;" d="M 62.792969 26.742188 C 61.328125 26.742188 60.21875 27.394531 58.949219 28.503906 L 58.492188 27.070312 L 55.105469 27.070312 L 55.105469 41.105469 L 59.113281 41.105469 L 59.113281 31.304688 C 60.089844 30.488281 60.871094 30.195312 61.71875 30.195312 C 62.074219 30.195312 62.757812 30.292969 63.476562 30.71875 L 64.941406 27.394531 C 64.324219 26.941406 63.476562 26.742188 62.792969 26.742188 "/>
</g>
<g clip-path="url(#clip3)" clip-rule="nonzero">
<path style=" stroke:none;fill-rule:nonzero;fill:rgb(13.851929%,19.415283%,40.132141%);fill-opacity:1;" d="M 68.589844 30.816406 C 68.589844 30.164062 69.242188 29.839844 70.378906 29.839844 C 71.910156 29.839844 73.246094 30.261719 74.550781 30.78125 L 74.550781 27.460938 C 73.378906 27.003906 72.074219 26.742188 70.21875 26.742188 C 66.796875 26.742188 64.714844 28.46875 64.714844 31.042969 C 64.714844 35.796875 71.226562 34.886719 71.226562 37.132812 C 71.226562 37.949219 70.347656 38.402344 68.980469 38.402344 C 67.644531 38.402344 66.242188 37.914062 65.070312 37.101562 L 63.835938 40 C 65.167969 40.8125 66.960938 41.398438 69.371094 41.398438 C 72.367188 41.398438 75.234375 40.164062 75.234375 36.9375 C 75.234375 32.050781 68.589844 32.769531 68.589844 30.816406 "/>
</g>
<g clip-path="url(#clip4)" clip-rule="nonzero">
<path style=" stroke:none;fill-rule:nonzero;fill:rgb(13.851929%,19.415283%,40.132141%);fill-opacity:1;" d="M 83.210938 38.046875 C 82.300781 38.046875 81.878906 37.523438 81.878906 36.480469 L 81.878906 30.585938 L 85.460938 30.585938 L 86.273438 27.429688 L 81.878906 27.429688 L 81.878906 22.609375 L 77.871094 23.8125 L 77.871094 27.429688 L 75.296875 27.429688 L 75.296875 30.585938 L 77.871094 30.585938 L 77.871094 38.011719 C 77.871094 39.902344 78.847656 41.398438 81.453125 41.398438 C 82.855469 41.398438 84.9375 40.976562 86.535156 39.804688 L 85.492188 37.328125 C 84.972656 37.65625 84.058594 38.046875 83.210938 38.046875 "/>
</g>
<g clip-path="url(#clip5)" clip-rule="nonzero">
<path style=" stroke:none;fill-rule:nonzero;fill:rgb(13.851929%,19.415283%,40.132141%);fill-opacity:1;" d="M 94.90625 37.621094 C 94.515625 37.914062 93.796875 38.273438 92.722656 38.273438 C 91.355469 38.273438 90.605469 37.589844 90.605469 36.515625 C 90.605469 35.472656 91.417969 34.855469 93.144531 34.820312 L 94.90625 34.757812 Z M 93.210938 26.742188 C 91.320312 26.742188 89.464844 27.039062 87.542969 28.273438 L 88.75 30.71875 C 89.695312 30.164062 90.929688 29.773438 92.363281 29.773438 C 93.730469 29.773438 94.9375 30.390625 94.9375 31.855469 L 94.9375 32.117188 L 92.558594 32.183594 C 89.011719 32.3125 86.597656 33.84375 86.597656 36.808594 C 86.597656 39.609375 88.617188 41.398438 91.289062 41.398438 C 93.082031 41.398438 94.320312 40.714844 95.261719 39.867188 L 95.882812 41.105469 L 99.007812 41.105469 L 99.007812 31.957031 C 99.007812 28.242188 96.957031 26.742188 93.210938 26.742188 "/>
</g>
<g clip-path="url(#clip6)" clip-rule="nonzero">
<path style=" stroke:none;fill-rule:nonzero;fill:rgb(13.851929%,19.415283%,40.132141%);fill-opacity:1;" d="M 100.800781 30.425781 L 100.800781 41.105469 L 104.804688 41.105469 L 104.804688 20.328125 L 100.800781 21.53125 L 100.800781 30.425781 "/>
</g>
<g clip-path="url(#clip7)" clip-rule="nonzero">
<path style=" stroke:none;fill-rule:nonzero;fill:rgb(13.851929%,19.415283%,40.132141%);fill-opacity:1;" d="M 5.277344 26.386719 C 5.277344 25.246094 6.21875 24.59375 7.6875 24.59375 C 9.28125 24.59375 10.878906 25.375 12.539062 26.257812 L 12.570312 22.542969 C 11.464844 21.859375 9.738281 21.339844 7.652344 21.339844 C 3.355469 21.339844 1.011719 23.945312 1.011719 26.90625 C 1.011719 28.4375 1.53125 29.511719 2.246094 30.390625 C 4.625 33.09375 9.25 33.550781 9.25 36.125 C 9.25 37.621094 7.589844 38.046875 6.320312 38.046875 C 5.046875 38.046875 3.125 37.003906 1.792969 36.089844 L 0 39.445312 C 1.695312 40.457031 3.710938 41.398438 6.546875 41.398438 C 10.550781 41.398438 13.679688 39.152344 13.679688 35.601562 C 13.679688 29.480469 5.277344 29.742188 5.277344 26.386719 "/>
</g>
<g clip-path="url(#clip8)" clip-rule="nonzero">
<path style=" stroke:none;fill-rule:nonzero;fill:rgb(13.851929%,19.415283%,40.132141%);fill-opacity:1;" d="M 44.714844 32.445312 C 44.714844 31.171875 45.660156 29.675781 47.257812 29.675781 C 48.949219 29.675781 49.699219 31.109375 49.796875 32.445312 Z M 47.355469 26.742188 C 43.152344 26.742188 40.808594 30.195312 40.808594 34.136719 C 40.808594 37.816406 42.859375 41.367188 47.875 41.367188 C 49.535156 41.367188 51.457031 40.945312 53.410156 39.738281 L 52.5 37.199219 C 50.9375 37.914062 49.894531 38.175781 48.527344 38.175781 C 46.671875 38.175781 44.910156 37.070312 44.8125 35.179688 L 53.867188 35.179688 L 53.867188 33.972656 C 53.867188 29.609375 51.199219 26.742188 47.355469 26.742188 "/>
</g>
<g clip-path="url(#clip9)" clip-rule="nonzero">
<path style=" stroke:none;fill-rule:nonzero;fill:rgb(13.851929%,19.415283%,40.132141%);fill-opacity:1;" d="M 18.5625 32.445312 C 18.5625 31.171875 19.476562 29.675781 21.070312 29.675781 C 22.796875 29.675781 23.546875 31.109375 23.644531 32.445312 Z M 21.203125 26.742188 C 17 26.742188 14.65625 30.195312 14.65625 34.136719 C 14.65625 37.816406 16.707031 41.367188 21.722656 41.367188 C 23.382812 41.367188 25.304688 40.945312 27.261719 39.738281 L 26.347656 37.199219 C 24.785156 37.914062 23.742188 38.175781 22.375 38.175781 C 20.519531 38.175781 18.757812 37.070312 18.660156 35.179688 L 27.714844 35.179688 L 27.714844 33.972656 C 27.714844 29.609375 25.046875 26.742188 21.203125 26.742188 "/>
</g>
<path style=" stroke:none;fill-rule:nonzero;fill:rgb(13.851929%,19.415283%,40.132141%);fill-opacity:1;" d="M 124.019531 3.71875 C 123.890625 2.675781 123.628906 1.632812 123.011719 1.015625 C 122.390625 0.398438 121.316406 0.136719 120.273438 0.0390625 C 119.265625 -0.0273438 118.125 -0.0273438 116.855469 0.136719 C 117.148438 0.234375 117.378906 0.398438 117.570312 0.558594 C 118.191406 1.144531 118.484375 2.121094 118.613281 3.066406 C 118.710938 3.785156 118.746094 4.53125 118.710938 5.378906 C 118.679688 6.714844 118.453125 8.246094 117.996094 10.003906 C 117.703125 11.109375 117.378906 12.121094 117.019531 13 C 117.019531 13.03125 117.019531 13.03125 117.019531 13.03125 C 117.703125 13.457031 118.386719 13.78125 119.003906 14.074219 C 119.886719 14.433594 120.894531 14.660156 121.675781 14.402344 C 121.9375 14.335938 122.164062 14.207031 122.390625 14.042969 L 122.425781 14.011719 C 122.71875 13.195312 122.980469 12.316406 123.238281 11.339844 C 123.628906 9.808594 123.890625 8.40625 123.988281 7.136719 C 124.117188 5.867188 124.117188 4.726562 124.019531 3.71875 "/>
<path style=" stroke:none;fill-rule:nonzero;fill:rgb(13.851929%,19.415283%,40.132141%);fill-opacity:1;" d="M 118.417969 15.441406 C 117.769531 15.183594 117.085938 14.855469 116.367188 14.402344 C 115.226562 13.683594 114.023438 12.738281 112.71875 11.46875 C 111.90625 10.65625 111.1875 9.875 110.601562 9.09375 C 109.886719 9.484375 109.265625 9.875 108.714844 10.296875 C 107.964844 10.882812 107.28125 11.601562 107.085938 12.445312 C 107.019531 12.707031 107.019531 12.96875 107.054688 13.261719 C 107.054688 13.292969 107.054688 13.292969 107.054688 13.292969 C 107.605469 13.945312 108.226562 14.628906 108.941406 15.3125 C 110.082031 16.453125 111.1875 17.363281 112.230469 18.082031 C 113.273438 18.832031 114.25 19.382812 115.160156 19.808594 C 116.105469 20.230469 117.179688 20.523438 118.027344 20.296875 C 118.84375 20.035156 119.625 19.253906 120.210938 18.40625 C 120.796875 17.558594 121.351562 16.582031 121.871094 15.410156 C 121.609375 15.574219 121.351562 15.734375 121.089844 15.800781 C 120.308594 16.0625 119.296875 15.835938 118.417969 15.441406 "/>
<path style=" stroke:none;fill-rule:nonzero;fill:rgb(13.851929%,19.415283%,40.132141%);fill-opacity:1;" d="M 107.800781 9.09375 C 108.355469 8.667969 108.972656 8.246094 109.722656 7.855469 C 110.929688 7.234375 112.359375 6.648438 114.085938 6.160156 C 115.226562 5.835938 116.238281 5.640625 117.179688 5.511719 C 117.214844 5.511719 117.214844 5.511719 117.214844 5.511719 C 117.246094 4.695312 117.179688 3.945312 117.117188 3.261719 C 116.984375 2.316406 116.691406 1.339844 116.074219 0.753906 C 115.878906 0.59375 115.652344 0.460938 115.390625 0.332031 L 115.359375 0.332031 C 114.511719 0.492188 113.597656 0.691406 112.652344 0.949219 C 111.125 1.375 109.789062 1.863281 108.617188 2.414062 C 107.476562 2.9375 106.5 3.488281 105.683594 4.078125 C 104.839844 4.695312 104.023438 5.476562 103.828125 6.324219 C 103.601562 7.171875 103.925781 8.246094 104.347656 9.191406 C 104.804688 10.101562 105.359375 11.078125 106.109375 12.089844 C 106.074219 11.796875 106.109375 11.503906 106.140625 11.242188 C 106.335938 10.425781 107.019531 9.679688 107.800781 9.09375 "/>
<g clip-path="url(#clip10)" clip-rule="nonzero">
<path style=" stroke:none;fill-rule:nonzero;fill:rgb(13.851929%,19.415283%,40.132141%);fill-opacity:1;" d="M 146.429688 35.734375 L 143.855469 29.15625 L 141.21875 35.734375 Z M 147.078125 37.394531 L 140.566406 37.394531 L 139.066406 41.171875 L 137.144531 41.171875 L 142.878906 27.070312 L 144.863281 27.070312 L 150.597656 41.171875 L 148.578125 41.171875 L 147.078125 37.394531 "/>
</g>
<g clip-path="url(#clip11)" clip-rule="nonzero">
<path style=" stroke:none;fill-rule:nonzero;fill:rgb(13.851929%,19.415283%,40.132141%);fill-opacity:1;" d="M 150.011719 30.195312 L 151.996094 30.195312 L 155.222656 38.730469 L 158.511719 30.195312 L 160.335938 30.195312 L 155.871094 41.171875 L 154.441406 41.171875 L 150.011719 30.195312 "/>
</g>
<g clip-path="url(#clip12)" clip-rule="nonzero">
<path style=" stroke:none;fill-rule:nonzero;fill:rgb(13.851929%,19.415283%,40.132141%);fill-opacity:1;" d="M 161.703125 30.195312 L 163.558594 30.195312 L 163.558594 41.171875 L 161.703125 41.171875 Z M 161.636719 26.484375 L 163.65625 26.484375 L 163.65625 28.503906 L 161.636719 28.503906 L 161.636719 26.484375 "/>
</g>
<g clip-path="url(#clip13)" clip-rule="nonzero">
<path style=" stroke:none;fill-rule:nonzero;fill:rgb(13.851929%,19.415283%,40.132141%);fill-opacity:1;" d="M 169.390625 39.902344 C 171.539062 39.902344 173.199219 38.4375 173.199219 36.546875 L 173.199219 35.863281 L 169.683594 36.222656 C 167.988281 36.382812 167.175781 37.003906 167.175781 38.109375 C 167.175781 39.25 167.957031 39.902344 169.390625 39.902344 Z M 170.464844 30 C 173.230469 30 174.894531 31.238281 174.894531 34.136719 L 174.894531 39.023438 C 174.894531 39.675781 175.1875 39.933594 175.675781 39.933594 C 175.773438 39.933594 175.933594 39.902344 176 39.902344 L 175.933594 41.203125 C 175.707031 41.269531 175.382812 41.300781 175.152344 41.300781 C 173.816406 41.300781 173.199219 40.683594 173.199219 39.382812 L 173.199219 39.25 C 172.386719 40.585938 170.917969 41.367188 169.160156 41.367188 C 166.847656 41.367188 165.414062 40.164062 165.414062 38.207031 C 165.414062 36.222656 166.71875 35.113281 169.390625 34.855469 L 173.167969 34.496094 L 173.167969 34.269531 C 173.167969 32.25 172.125 31.46875 170.429688 31.46875 C 168.800781 31.46875 167.660156 32.214844 167.53125 33.746094 L 165.804688 33.484375 C 166.195312 31.171875 167.921875 30 170.464844 30 "/>
</g>
</g>
</svg>

<svg xmlns="http://www.w3.org/2000/svg" width="176pt" height="55.2" viewBox="0 0 176 41.4"><defs><clipPath id="a"><path d="M26 27h16v14.398H26Zm0 0"/></clipPath><clipPath id="b"><path d="M55 26h10v15.398H55Zm0 0"/></clipPath><clipPath id="c"><path d="M63 26h13v15.398H63Zm0 0"/></clipPath><clipPath id="d"><path d="M75 22h12v19.398H75Zm0 0"/></clipPath><clipPath id="e"><path d="M86 26h14v15.398H86Zm0 0"/></clipPath><clipPath id="f"><path d="M100 20h5v21.398h-5Zm0 0"/></clipPath><clipPath id="g"><path d="M0 21h14v20.398H0Zm0 0"/></clipPath><clipPath id="h"><path d="M40 26h14v15.398H40Zm0 0"/></clipPath><clipPath id="i"><path d="M14 26h14v15.398H14Zm0 0"/></clipPath><clipPath id="j"><path d="M137 27h14v14.398h-14Zm0 0"/></clipPath><clipPath id="k"><path d="M150 30h11v11.398h-11Zm0 0"/></clipPath><clipPath id="l"><path d="M161 26h3v15.398h-3Zm0 0"/></clipPath><clipPath id="m"><path d="M165 30h11v11.398h-11Zm0 0"/></clipPath></defs><g clip-path="url(#a)"><path d="m37.68 27.07-3.254 8.989h-.067l-3.32-8.989h-4.105l5.894 14.102h2.867L41.59 27.07z" style="stroke:none;fill-rule:nonzero;fill:#233266;fill-opacity:1"/></g><g clip-path="url(#b)"><path d="M62.793 26.742c-1.465 0-2.574.653-3.844 1.762l-.457-1.434h-3.387v14.035h4.008v-9.8c.977-.817 1.758-1.11 2.606-1.11.355 0 1.039.098 1.758.524l1.464-3.324c-.617-.454-1.464-.653-2.148-.653" style="stroke:none;fill-rule:nonzero;fill:#233266;fill-opacity:1"/></g><g clip-path="url(#c)"><path d="M68.59 30.816c0-.652.652-.976 1.789-.976 1.531 0 2.867.422 4.172.941v-3.32c-1.172-.457-2.477-.719-4.332-.719-3.422 0-5.504 1.727-5.504 4.301 0 4.754 6.512 3.844 6.512 6.09 0 .816-.88 1.27-2.247 1.27-1.335 0-2.738-.489-3.91-1.301L63.836 40c1.332.813 3.125 1.398 5.535 1.398 2.996 0 5.863-1.234 5.863-4.46 0-4.887-6.644-4.168-6.644-6.122" style="stroke:none;fill-rule:nonzero;fill:#233266;fill-opacity:1"/></g><g clip-path="url(#d)"><path d="M83.21 38.047c-.91 0-1.331-.524-1.331-1.567v-5.894h3.582l.812-3.156H81.88v-4.82l-4.008 1.203v3.617h-2.574v3.156h2.574v7.426c0 1.89.977 3.386 3.582 3.386 1.402 0 3.484-.421 5.082-1.593l-1.043-2.477c-.52.328-1.433.719-2.281.719" style="stroke:none;fill-rule:nonzero;fill:#233266;fill-opacity:1"/></g><g clip-path="url(#e)"><path d="M94.906 37.621c-.39.293-1.11.652-2.183.652-1.368 0-2.118-.683-2.118-1.757 0-1.043.813-1.66 2.54-1.696l1.761-.062Zm-1.695-10.879c-1.89 0-3.746.297-5.668 1.531l1.207 2.446c.945-.555 2.18-.946 3.613-.946 1.367 0 2.575.618 2.575 2.082v.262l-2.38.067c-3.546.129-5.96 1.66-5.96 4.625 0 2.8 2.02 4.59 4.691 4.59 1.793 0 3.031-.684 3.973-1.532l.62 1.238h3.126v-9.148c0-3.715-2.051-5.215-5.797-5.215" style="stroke:none;fill-rule:nonzero;fill:#233266;fill-opacity:1"/></g><g clip-path="url(#f)"><path d="M100.8 30.426v10.68h4.005V20.327l-4.004 1.203z" style="stroke:none;fill-rule:nonzero;fill:#233266;fill-opacity:1"/></g><g clip-path="url(#g)"><path d="M5.277 26.387c0-1.14.942-1.793 2.41-1.793 1.594 0 3.192.781 4.852 1.664l.031-3.715c-1.105-.684-2.832-1.203-4.918-1.203-4.297 0-6.64 2.605-6.64 5.566 0 1.532.52 2.606 1.234 3.485 2.379 2.703 7.004 3.16 7.004 5.734 0 1.496-1.66 1.922-2.93 1.922-1.273 0-3.195-1.043-4.527-1.957L0 39.445c1.695 1.012 3.71 1.953 6.547 1.953 4.004 0 7.133-2.246 7.133-5.796 0-6.122-8.403-5.86-8.403-9.215" style="stroke:none;fill-rule:nonzero;fill:#233266;fill-opacity:1"/></g><g clip-path="url(#h)"><path d="M44.715 32.445c0-1.273.945-2.77 2.543-2.77 1.691 0 2.441 1.434 2.539 2.77Zm2.64-5.703c-4.203 0-6.546 3.453-6.546 7.395 0 3.68 2.05 7.23 7.066 7.23 1.66 0 3.582-.422 5.535-1.629L52.5 37.2c-1.562.715-2.605.977-3.973.977-1.855 0-3.617-1.106-3.715-2.996h9.055v-1.207c0-4.364-2.668-7.23-6.512-7.23" style="stroke:none;fill-rule:nonzero;fill:#233266;fill-opacity:1"/></g><g clip-path="url(#i)"><path d="M18.563 32.445c0-1.273.914-2.77 2.507-2.77 1.727 0 2.477 1.434 2.575 2.77Zm2.64-5.703c-4.203 0-6.547 3.453-6.547 7.395 0 3.68 2.051 7.23 7.067 7.23 1.66 0 3.582-.422 5.539-1.629l-.914-2.539c-1.563.715-2.606.977-3.973.977-1.855 0-3.617-1.106-3.715-2.996h9.055v-1.207c0-4.364-2.668-7.23-6.512-7.23" style="stroke:none;fill-rule:nonzero;fill:#233266;fill-opacity:1"/></g><path d="M124.02 3.719c-.13-1.043-.391-2.086-1.008-2.703-.621-.618-1.696-.88-2.739-.977a17.5 17.5 0 0 0-3.418.098c.293.097.524.261.715.422.621.586.914 1.562 1.043 2.507.098.72.133 1.465.098 2.313-.031 1.336-.258 2.867-.715 4.625-.293 1.105-.617 2.117-.976 2.996v.031c.683.426 1.367.75 1.984 1.043.883.36 1.89.586 2.672.328a2.1 2.1 0 0 0 .715-.359l.035-.031a32 32 0 0 0 .812-2.672c.39-1.531.653-2.934.75-4.203.13-1.27.13-2.41.032-3.418" style="stroke:none;fill-rule:nonzero;fill:#233266;fill-opacity:1"/><path d="M118.418 15.441a12.4 12.4 0 0 1-2.05-1.039c-1.141-.718-2.345-1.664-3.65-2.933-.812-.813-1.53-1.594-2.116-2.375-.715.39-1.336.781-1.887 1.203-.75.586-1.434 1.305-1.63 2.148a2.2 2.2 0 0 0-.03.817v.031c.55.652 1.172 1.336 1.886 2.02a23.7 23.7 0 0 0 3.29 2.769c1.042.75 2.019 1.3 2.93 1.727.944.421 2.019.714 2.866.488.817-.262 1.598-1.043 2.184-1.89a18 18 0 0 0 1.66-2.997c-.262.164-.52.324-.781.39-.781.262-1.793.036-2.672-.359" style="stroke:none;fill-rule:nonzero;fill:#233266;fill-opacity:1"/><path d="M107.8 9.094a13 13 0 0 1 1.923-1.239 23.4 23.4 0 0 1 4.363-1.695 22 22 0 0 1 3.094-.648h.035c.031-.817-.035-1.567-.098-2.25-.133-.946-.426-1.922-1.043-2.508a3.5 3.5 0 0 0-.683-.422h-.032c-.847.16-1.761.36-2.707.617-1.527.426-2.863.914-4.035 1.465-1.14.523-2.117 1.074-2.933 1.664-.844.617-1.66 1.399-1.856 2.246-.226.848.098 1.922.52 2.867a19.4 19.4 0 0 0 1.761 2.899c-.035-.293 0-.586.032-.848.195-.816.879-1.562 1.66-2.148" style="stroke:none;fill-rule:nonzero;fill:#233266;fill-opacity:1"/><g clip-path="url(#j)"><path d="m146.43 35.734-2.575-6.578-2.636 6.578Zm.648 1.66h-6.512l-1.5 3.778h-1.921l5.734-14.102h1.984l5.735 14.102h-2.02z" style="stroke:none;fill-rule:nonzero;fill:#233266;fill-opacity:1"/></g><g clip-path="url(#k)"><path d="M150.012 30.195h1.984l3.227 8.535 3.289-8.535h1.824l-4.465 10.977h-1.43z" style="stroke:none;fill-rule:nonzero;fill:#233266;fill-opacity:1"/></g><g clip-path="url(#l)"><path d="M161.703 30.195h1.856v10.977h-1.856Zm-.066-3.71h2.02v2.019h-2.02z" style="stroke:none;fill-rule:nonzero;fill:#233266;fill-opacity:1"/></g><g clip-path="url(#m)"><path d="M169.39 39.902c2.15 0 3.81-1.465 3.81-3.355v-.684l-3.516.36c-1.696.16-2.508.78-2.508 1.886 0 1.141.781 1.793 2.215 1.793M170.466 30c2.765 0 4.43 1.238 4.43 4.137v4.886c0 .653.292.91.78.91.098 0 .259-.03.325-.03l-.066 1.3c-.227.067-.551.098-.782.098-1.336 0-1.953-.617-1.953-1.918v-.133c-.812 1.336-2.281 2.117-4.039 2.117-2.312 0-3.746-1.203-3.746-3.16 0-1.984 1.305-3.094 3.977-3.352l3.777-.359v-.226c0-2.02-1.043-2.801-2.738-2.801-1.63 0-2.77.746-2.899 2.277l-1.726-.262c.39-2.312 2.117-3.484 4.66-3.484" style="stroke:none;fill-rule:nonzero;fill:#233266;fill-opacity:1"/></g></svg>
